X:391
T:
R:polska
S:Ur en gammal notbok tillhörande Gotlands fornsal.
O:Gotland
M:3/4
L:1/16
K:Bb
Bdfb gege fdfd|Bdfb gege f4|fbag gff=e _edcB|BAdc BAGF =EFGA|Bdfb gege fdfd|Bdfb gege f4|
fbag gff=e _edcB|BAdc  c4 B4::FBAB cBAB dBAB|GEGB cBAG FEDC|[B,F]BAB cBAB dBAB|GEGB cBAG G2F2|Bdfb gege fdfd|Bdfb gege f4|
fbag gff=e _edcB|BAdc  c4 B4:|

